src/icons/blockchains/dark/moonbeam.svg

<svg width="24" height="24" viewBox="0 0 24 24" fill="none" xmlns="http://www.w3.org/2000/svg">
  <rect width="24" height="24" rx="12" fill="#080530" />
  <mask
    id="mask0_1131_18503"
    style="mask-type: alpha"
    maskUnits="userSpaceOnUse"
    x="4"
    y="4"
    width="16"
    height="16"
  >
    <rect x="4" y="4" width="16" height="16" fill="#D9D9D9" />
  </mask>
  <g mask="url(#mask0_1131_18503)">
    <path
      d="M15.1641 5.68851C16.9879 6.46679 18.2038 8.3847 18.0656 10.3304C14.8048 10.3304 11.544 10.3582 8.2832 10.3026C8.2832 8.99621 8.72535 7.66201 9.66488 6.74475C11.0466 5.32716 13.3402 4.88243 15.1641 5.68851Z"
      fill="white"
    />
    <path
      d="M15.0257 18.1973C15.2191 18.1973 15.3849 18.3084 15.3849 18.4474C15.3849 18.5864 15.2191 18.6976 15.0257 18.6976H9.77524C9.5818 18.6976 9.41602 18.5864 9.41602 18.4474C9.41602 18.3084 9.5818 18.1973 9.77524 18.1973H15.0257Z"
      fill="white"
    />
    <path
      d="M8.64244 18.6973C8.84083 18.6973 9.00169 18.5355 9.00169 18.336C9.00169 18.1364 8.84083 17.9746 8.64244 17.9746C8.44404 17.9746 8.2832 18.1364 8.2832 18.336C8.2832 18.5355 8.44404 18.6973 8.64244 18.6973Z"
      fill="white"
    />
    <path
      d="M11.7928 17.3633C11.9912 17.3633 12.1521 17.2015 12.1521 17.002C12.1521 16.8024 11.9912 16.6406 11.7928 16.6406C11.5945 16.6406 11.4336 16.8024 11.4336 17.002C11.4336 17.2015 11.5945 17.3633 11.7928 17.3633Z"
      fill="white"
    />
    <path
      d="M17.9552 16.6406C18.1486 16.6406 18.3144 16.8074 18.3144 17.002C18.3144 17.1966 18.1486 17.3633 17.9552 17.3633H12.8153C12.6219 17.3633 12.4561 17.1966 12.4561 17.002C12.4561 16.8074 12.6219 16.6406 12.8153 16.6406H17.9552Z"
      fill="white"
    />
    <path
      d="M5.04967 16.0293C5.24807 16.0293 5.40891 15.8676 5.40891 15.668C5.40891 15.4684 5.24807 15.3066 5.04967 15.3066C4.85127 15.3066 4.69043 15.4684 4.69043 15.668C4.69043 15.8676 4.85127 16.0293 5.04967 16.0293Z"
      fill="white"
    />
    <path
      d="M10.1624 15.3066C10.3559 15.3066 10.5217 15.4734 10.5217 15.668C10.5217 15.8625 10.3559 16.0293 10.1624 16.0293H5.93443C5.741 16.0293 5.5752 15.8625 5.5752 15.668C5.5752 15.4734 5.741 15.3066 5.93443 15.3066H10.1624Z"
      fill="white"
    />
    <path
      d="M19.6408 15.3066C19.8343 15.3066 20 15.4734 20 15.668C20 15.8625 19.8343 16.0293 19.6408 16.0293H11.2401C11.0467 16.0293 10.8809 15.8625 10.8809 15.668C10.8809 15.4734 11.0467 15.3066 11.2401 15.3066H19.6408Z"
      fill="white"
    />
    <path
      d="M18.0661 13.9717C18.2595 13.9717 18.4253 14.1385 18.4253 14.333C18.4253 14.5276 18.2595 14.6944 18.0661 14.6944H7.75866C7.56522 14.6944 7.39941 14.5276 7.39941 14.333C7.39941 14.1385 7.56522 13.9717 7.75866 13.9717H18.0661Z"
      fill="white"
    />
    <path
      d="M6.62487 14.6944C6.82327 14.6944 6.98411 14.5326 6.98411 14.333C6.98411 14.1335 6.82327 13.9717 6.62487 13.9717C6.42646 13.9717 6.26562 14.1335 6.26562 14.333C6.26562 14.5326 6.42646 14.6944 6.62487 14.6944Z"
      fill="white"
    />
    <path
      d="M15.9098 12.666C16.1033 12.666 16.2691 12.8328 16.2691 13.0274C16.2691 13.222 16.1033 13.3887 15.9098 13.3887H5.6024C5.40897 13.3887 5.24316 13.222 5.24316 13.0274C5.24316 12.8328 5.40897 12.666 5.6024 12.666H15.9098Z"
      fill="white"
    />
    <path
      d="M4.35924 13.3887C4.55764 13.3887 4.71848 13.2269 4.71848 13.0274C4.71848 12.8278 4.55764 12.666 4.35924 12.666C4.16084 12.666 4 12.8278 4 13.0274C4 13.2269 4.16084 13.3887 4.35924 13.3887Z"
      fill="white"
    />
    <path
      d="M6.62487 12.0538C6.82327 12.0538 6.98411 11.892 6.98411 11.6924C6.98411 11.4928 6.82327 11.3311 6.62487 11.3311C6.42646 11.3311 6.26562 11.4928 6.26562 11.6924C6.26562 11.892 6.42646 12.0538 6.62487 12.0538Z"
      fill="white"
    />
    <path
      d="M19.06 11.3311C19.2535 11.3311 19.4192 11.4978 19.4192 11.6924C19.4192 11.887 19.2535 12.0538 19.06 12.0538H7.84068C7.64725 12.0538 7.48145 11.887 7.48145 11.6924C7.48145 11.4978 7.64725 11.3311 7.84068 11.3311H19.06Z"
      fill="white"
    />
  </g>
</svg>

<svg
  xmlns="http://www.w3.org/2000/svg"
  xmlns:xlink="http://www.w3.org/1999/xlink"
  width="24"
  height="24"
  fill="none"
  xmlns:v="https://vecta.io/nano"
>
  <rect width="24" height="24" rx="12" fill="#080530" />
  <mask id="A" maskUnits="userSpaceOnUse" x="4" y="4" width="16" height="16" mask-type="alpha">
    <path fill="#d9d9d9" d="M4 4h16v16H4z" />
  </mask>
  <g mask="url(#A)">
    <path
      d="M15.164 5.689c1.824.778 3.04 2.696 2.902 4.642-3.261 0-6.522.028-9.782-.028 0-1.306.442-2.641 1.382-3.558a5.04 5.04 0 0 1 5.499-1.056zm-.138 12.508c.193 0 .359.111.359.25s-.166.25-.359.25h-5.25c-.193 0-.359-.111-.359-.25s.166-.25.359-.25h5.25z"
      fill="#fff"
    />
    <use xlink:href="#C" fill="#fff" />
    <use xlink:href="#C" x="3.151" y="-1.334" fill="#fff" />
    <path
      d="M17.955 16.641c.193 0 .359.167.359.361s-.166.361-.359.361h-5.14c-.193 0-.359-.167-.359-.361s.166-.361.359-.361h5.14z"
      fill="#fff"
    />
    <use xlink:href="#C" x="-3.592" y="-2.668" fill="#fff" />
    <path
      d="M10.162 15.307c.194 0 .359.167.359.361s-.166.361-.359.361H5.934c-.193 0-.359-.167-.359-.361s.166-.361.359-.361h4.228zm9.479 0c.194 0 .359.167.359.361s-.166.361-.359.361H11.24c-.193 0-.359-.167-.359-.361s.166-.361.359-.361h8.401zm-1.575-1.335c.193 0 .359.167.359.361s-.166.361-.359.361H7.759c-.193 0-.359-.167-.359-.361s.166-.361.359-.361h10.307z"
      fill="#fff"
    />
    <use xlink:href="#C" x="-2.017" y="-4.003" fill="#fff" />
    <path
      d="M15.91 12.666c.194 0 .359.167.359.361s-.166.361-.359.361H5.602c-.193 0-.359-.167-.359-.361s.166-.361.359-.361H15.91z"
      fill="#fff"
    />
    <use xlink:href="#C" x="-4.283" y="-5.308" fill="#fff" />
    <use xlink:href="#C" x="-2.017" y="-6.643" fill="#fff" />
    <path
      d="M19.06 11.331c.194 0 .359.167.359.361s-.166.361-.359.361H7.841c-.193 0-.359-.167-.359-.361s.166-.361.359-.361H19.06z"
      fill="#fff"
    />
  </g>
  <defs><path id="C" d="M8.642 18.697a.36.36 0 0 0 0-.723.36.36 0 0 0 0 .723z" /></defs>
</svg>
